X:1
T:Title
%%score { ( 1 3 ) | ( 2 4 ) }
L:1/8
M:6/8
K:Ab
V:1 treble nm="Grand Piano"
V:3 treble 
V:2 bass 
V:4 bass 
V:1
 z3 z2[Q:1/4=90] [CE] | [Ec]>[Ec][Ec] cGB | [CA][A,C][DF] [CE]2 [CA] | AGB [Fd]2 [DF] | %4
 [DF][CE][Fd] [Ec]2 [CE] | [Ec]>[Ec][Ec] cGB | [CA][A,C][DF] [CE][CA][Ec] | %7
[M:13/16] [Ge][Fd]FGc3/2B |[M:5/8] [CA]-[CA]- [CA]3 |[M:1/8] [Ae] | %10
[M:3/4] [Ge][Fd] [DF] [EG]2 [Fd] | [Ec]6[K:bass][K:treble] | cB E B2 c |[M:5/8] [DB][CA]C [CE]2 | %14
[M:1/8] [Ae] |[M:3/4] [Ge][Fd] [DF] [EG]2 [Fd] | [Ec]6[K:bass][K:treble] | cB G E2 B | %18
[M:5/8] [CA]-[CA]- [CA]3 |] %19
V:2
 z3 z2 [A,,A,] | [A,,A,]>[A,,A,][A,,A,] [E,G,E][E,B,D][E,G,D] | %2
 [A,,A,][A,,E,][A,,A,] [A,,A,]2 [A,,A,] | [E,C][E,B,][E,G,D] [E,G,]2 [E,G,] | %4
 [A,,A,][A,,A,][A,,A,] [A,,A,]2 [A,,A,] | [A,,A,]>[A,,A,][A,,A,] [E,G,E][E,B,D][E,G,D] | %6
 [A,,A,][A,,E,][A,,A,] [A,,A,][A,,A,][A,,A,] | %7
[M:13/16] [E,B,][E,B,][E,B,D][E,B,][E,G,E]3/2[E,G,D] |[M:5/8] [A,,A,]-[A,,A,]- [A,,A,]3 | %9
[M:1/8] [A,C] |[M:3/4] [E,B,][E,B,] [E,B,] [E,B,]2 [E,G,] | A,4 z [A,F] | %12
 [E,G,E][E,G,D] [E,G,D] [E,G,D]2 [E,G,E] |[M:5/8] [A,,A,][A,,A,][A,,A,] [A,,A,]2 |[M:1/8] [C,A,] | %15
[M:3/4] [E,B,][E,B,] [E,B,] [E,B,]2 [E,G,] | A,4 z [A,F] | %17
 [E,G,E][E,G,D] [E,B,D] [E,G,D]2 [E,G,D] |[M:5/8] [A,,A,]-[A,,A,]- [A,,A,]3 |] %19
V:3
 x6 | x6 | x6 | x6 | x6 | x6 | x6 |[M:13/16] x13/2 |[M:5/8] x5 |[M:1/8] x |[M:3/4] x6 | %11
 z[K:bass] C, E, A,2[K:treble] d | x6 |[M:5/8] x5 |[M:1/8] x |[M:3/4] x6 | %16
 z[K:bass] C, E, A,2[K:treble] d | x6 |[M:5/8] x5 |] %19
V:4
 x6 | x6 | x6 | x6 | x6 | x6 | x6 |[M:13/16] x13/2 |[M:5/8] x5 |[M:1/8] x |[M:3/4] x6 | %11
 .A,,2 z2 z2 | x6 |[M:5/8] x5 |[M:1/8] x |[M:3/4] x6 | .A,,2 z2 z2 | x6 |[M:5/8] x5 |] %19

